X:48
T:Captain Wake,A Quick Step. JBs.048
T:Capt. Whiteâ€™s,aka. JBs.048
S:Jas.Blackshaw MS, 1837, N.Shropshire
Z:Tony Weatherall 2006
M:6/8
L:1/8
Q:3/8=120
A:North Shropshire
R:Jig
K:G
D|GBd g2b|agf e2g|d2gB2d|cBc A2B|!
GBd g2 b|agf e2g|d2gB2d|def g2:|!
|:b|agad2b|aga câ€™2b|a2g fge|edd d2b|!
aga d2b|agacâ€™2b|a2gf2e|d2cB2A|!
G2b bab|g2d dBd|G2b bab|câ€™bcâ€™ aga|!
G2b bab|g2d dBd|efg aba|fed cBA:|

